assets/img/insta.svg

<svg fill="none" height="54" viewBox="0 0 55 54" width="55" xmlns="http://www.w3.org/2000/svg"><path d="m27.6519 4.83318c7.1593 0 8.0084.02681 10.8372.15641 7.2665.3307 10.6607 3.77851 10.9914 10.99141.1296 2.8266.1542 3.6757.1542 10.835 0 7.1615-.0268 8.0084-.1542 10.835-.3329 7.2062-3.7182 10.6607-10.9914 10.9914-2.8288.1296-3.6735.1564-10.8372.1564-7.1593 0-8.0084-.0268-10.835-.1564-7.28441-.333-10.6607-3.7964-10.99141-10.9937-.1296-2.8266-.15641-3.6734-.15641-10.8349 0-7.1593.02905-8.0062.15641-10.835.33294-7.2107 3.71818-10.66074 10.99141-10.99144 2.8288-.12737 3.6757-.15418 10.835-.15418zm0-4.83318c-7.2822 0-8.1939.0312827-11.054.160882-9.73784.446896-15.14975 5.849868-15.59665 15.596618-.131833 2.8624-.163115 3.7741-.163115 11.0563 0 7.2821.031282 8.196.160882 11.0562.446893 9.7378 5.849863 15.1497 15.596683 15.5966 2.8623.1296 3.774.1609 11.0562.1609s8.1961-.0313 11.0562-.1609c9.7289-.4469 15.1542-5.8498 15.5944-15.5966.1319-2.8602.1631-3.7741.1631-11.0562 0-7.2822-.0312-8.1939-.1608-11.054-.438-9.72894-5.8477-15.149787-15.5945-15.596683-2.8623-.1318343-3.7762-.163117-11.0584-.163117zm0 13.0449c-7.6039 0-13.7689 6.1649-13.7689 13.7689 0 7.6039 6.165 13.771 13.7689 13.771s13.7688-6.1649 13.7688-13.771c0-7.604-6.1649-13.7689-13.7688-13.7689zm0 22.7068c-4.936 0-8.9379-3.9998-8.9379-8.9379 0-4.936 4.0019-8.938 8.9379-8.938s8.9379 4.002 8.9379 8.938c0 4.9381-4.0019 8.9379-8.9379 8.9379zm14.3141-26.46744c-1.7787 0-3.2199 1.44124-3.2199 3.21764s1.4412 3.2177 3.2199 3.2177c1.7764 0 3.2154-1.4413 3.2154-3.2177s-1.439-3.21764-3.2154-3.21764z" fill="#fff"/></svg>

<svg width="55" height="54" viewBox="0 0 55 54" fill="none" xmlns="http://www.w3.org/2000/svg">
<path d="M27.6519 4.83318C34.8112 4.83318 35.6603 4.85999 38.4891 4.98959C45.7556 5.32029 49.1498 8.7681 49.4805 15.981C49.6101 18.8076 49.6347 19.6567 49.6347 26.816C49.6347 33.9775 49.6079 34.8244 49.4805 37.651C49.1476 44.8572 45.7623 48.3117 38.4891 48.6424C35.6603 48.772 34.8156 48.7988 27.6519 48.7988C20.4926 48.7988 19.6435 48.772 16.8169 48.6424C9.53249 48.3094 6.1562 44.846 5.82549 37.6487C5.69589 34.8221 5.66908 33.9753 5.66908 26.8138C5.66908 19.6545 5.69813 18.8076 5.82549 15.9788C6.15843 8.7681 9.54367 5.31806 16.8169 4.98736C19.6457 4.85999 20.4926 4.83318 27.6519 4.83318ZM27.6519 0C20.3697 0 19.458 0.0312827 16.5979 0.160882C6.86006 0.607778 1.44815 6.01075 1.00125 15.7575C0.869417 18.6199 0.838135 19.5316 0.838135 26.8138C0.838135 34.0959 0.869417 35.0098 0.999017 37.87C1.44591 47.6078 6.84888 53.0197 16.5957 53.4666C19.458 53.5962 20.3697 53.6275 27.6519 53.6275C34.9341 53.6275 35.848 53.5962 38.7081 53.4666C48.437 53.0197 53.8623 47.6168 54.3025 37.87C54.4344 35.0098 54.4656 34.0959 54.4656 26.8138C54.4656 19.5316 54.4344 18.6199 54.3048 15.7598C53.8668 6.03086 48.4571 0.610013 38.7103 0.163117C35.848 0.0312827 34.9341 0 27.6519 0V0ZM27.6519 13.0449C20.048 13.0449 13.883 19.2098 13.883 26.8138C13.883 34.4177 20.048 40.5848 27.6519 40.5848C35.2558 40.5848 41.4207 34.4199 41.4207 26.8138C41.4207 19.2098 35.2558 13.0449 27.6519 13.0449ZM27.6519 35.7517C22.7159 35.7517 18.714 31.7519 18.714 26.8138C18.714 21.8778 22.7159 17.8758 27.6519 17.8758C32.5879 17.8758 36.5898 21.8778 36.5898 26.8138C36.5898 31.7519 32.5879 35.7517 27.6519 35.7517ZM41.966 9.28426C40.1873 9.28426 38.7461 10.7255 38.7461 12.5019C38.7461 14.2783 40.1873 15.7196 41.966 15.7196C43.7424 15.7196 45.1814 14.2783 45.1814 12.5019C45.1814 10.7255 43.7424 9.28426 41.966 9.28426Z" fill="white"/>
</svg>
